src/components/Uploader/assets/upload.svg

<?xml version="1.0" encoding="UTF-8" standalone="no"?>
<svg width="62px" height="56px" viewBox="0 0 62 56" version="1.1" xmlns="http://www.w3.org/2000/svg" xmlns:xlink="http://www.w3.org/1999/xlink">
    <!-- Generator: Sketch 46.1 (44463) - http://www.bohemiancoding.com/sketch -->
    <title>upload</title>
    <desc>Created with Sketch.</desc>
    <defs></defs>
    <g id="Symbols" stroke="none" stroke-width="1" fill="none" fill-rule="evenodd">
        <g id="icons/large/upload" transform="translate(-1.000000, -4.000000)" fill-rule="nonzero" fill="#2A7AB0">
            <g id="upload" transform="translate(1.000000, 4.000000)">
                <path d="M61.225,29.6109589 C61.225,33.4465753 59.7525,37.2054795 57.1175,40.0438356 C54.56,42.8821918 50.9175,44.6465753 47.0425,44.9534247 L37.5875,44.9534247 C36.735,45.1068493 35.96,44.569863 35.7275,43.8027397 C35.5725,42.9589041 36.115,42.1917808 36.89,41.9616438 C37.1225,41.8849315 37.355,41.8849315 37.51,41.9616438 L46.8875,41.9616438 C53.0875,41.5013699 58.125,35.9780822 58.125,29.6876712 C58.125,23.7808219 53.94,18.6410959 48.05,17.490411 C47.3525,17.3369863 46.8875,16.8 46.81,16.1863014 C46.035,8.20821918 38.8275,2.37808219 30.845,3.14520548 C25.73,3.60547945 21.235,6.75068493 19.065,11.3534247 C18.755,12.0438356 17.9025,12.3506849 17.1275,12.1205479 C16.43,11.890411 15.655,11.7369863 14.88,11.7369863 C11.2375,11.7369863 8.37,14.6520548 8.37,18.1808219 C8.37,18.9479452 8.525,19.7150685 8.7575,20.4054795 C8.99,21.0958904 8.7575,21.8630137 8.1375,22.2465753 C4.96,24.0876712 3.0225,27.4630137 3.0225,31.0684932 C3.0225,36.6684932 7.5175,41.6547945 12.7875,41.9616438 L23.6375,41.9616438 C24.49,42.1917808 24.955,42.9589041 24.8,43.8027397 C24.645,44.339726 24.2575,44.8 23.6375,44.9534247 L12.6325,44.9534247 C9.145,44.7232877 5.89,43.1123288 3.6425,40.5041096 C1.3175,37.8191781 0,34.5205479 0,31.0684932 C0,26.7726027 2.0925,22.7835616 5.58,20.3287671 C4.4175,15.1890411 7.595,10.1260274 12.7875,8.97534247 C14.105,8.66849315 15.5775,8.66849315 16.895,8.97534247 C21.7775,0.460273973 32.55,-2.45479452 40.9975,2.22465753 C45.6475,4.83287671 48.9025,9.43561644 49.755,14.6520548 C56.575,16.4931507 61.3025,22.630137 61.225,29.6109589 Z M38.595,32.5260274 C39.06,33.2164384 39.99,33.4465753 40.765,32.9863014 C41.4625,32.5260274 41.695,31.6054795 41.23,30.8383562 C41.1525,30.6849315 40.9975,30.5315068 40.765,30.3780822 L31.6975,21.4027397 C31.0775,20.8657534 30.1475,20.8657534 29.5275,21.4027397 L20.46,30.3780822 C19.995,31.0684932 20.15,32.0657534 20.925,32.5260274 C21.4675,32.8328767 22.0875,32.8328767 22.63,32.5260274 L29.0625,26.0821918 L29.0625,54.5424658 C29.2175,55.3863014 30.07,55.9232877 30.9225,55.6931507 C31.5425,55.539726 32.0075,55.0794521 32.085,54.5424658 L32.085,26.0821918 L38.595,32.5260274 L38.595,32.5260274 Z" id="Shape"></path>
            </g>
        </g>
    </g>
</svg>

<svg width="62" height="56" viewBox="0 0 62 56" xmlns="http://www.w3.org/2000/svg">
  <title>
    upload
  </title>
  <path d="M61.225 29.61c0 3.837-1.473 7.595-4.108 10.434-2.557 2.838-6.2 4.603-10.075 4.91h-9.455c-.852.153-1.627-.384-1.86-1.15-.154-.845.388-1.612 1.163-1.842.233-.077.465-.077.62 0h9.378c6.2-.46 11.237-5.984 11.237-12.274 0-5.907-4.185-11.047-10.075-12.198-.697-.153-1.162-.69-1.24-1.304-.775-7.978-7.983-13.808-15.965-13.04-5.115.46-9.61 3.605-11.78 8.207-.31.69-1.163.998-1.938.768-.697-.23-1.472-.383-2.247-.383-3.643 0-6.51 2.915-6.51 6.444 0 .768.155 1.535.388 2.225.232.69 0 1.458-.62 1.842-3.178 1.84-5.115 5.216-5.115 8.82 0 5.6 4.495 10.588 9.764 10.895h10.85c.853.23 1.318.997 1.163 1.84-.155.538-.543.998-1.163 1.15H12.632c-3.487-.23-6.742-1.84-8.99-4.448C1.317 37.82 0 34.52 0 31.068c0-4.295 2.092-8.284 5.58-10.74-1.162-5.14 2.015-10.202 7.207-11.353 1.318-.307 2.79-.307 4.108 0C21.778.46 32.55-2.455 40.998 2.225c4.65 2.608 7.905 7.21 8.757 12.427 6.82 1.84 11.547 7.978 11.47 14.96zm-22.63 2.916c.465.69 1.395.92 2.17.46.697-.46.93-1.38.465-2.148-.077-.153-.232-.306-.465-.46l-9.067-8.975c-.62-.537-1.55-.537-2.17 0l-9.068 8.975c-.465.69-.31 1.688.465 2.148.543.307 1.162.307 1.705 0l6.433-6.444v28.46c.155.844 1.007 1.38 1.86 1.15.62-.152 1.085-.613 1.162-1.15v-28.46l6.51 6.444z" fill-rule="nonzero" fill="#2A7AB0"/>
</svg>
